X: 4423
T: "the FAIRY" WALTZ
R: Waltz
%R: waltz
B: James Kerr "Merry Melodies" v.4 p.47 #423
Z: 2016 John Chambers <jc:trillian.mit.edu>
M: 3/4
L: 1/8
K: D
|:!p!\
A2g2g2 | f2A2A2 | e2A2A2 | d2A2A2 |\
A2g2g2 | f2A2A2 | e2A2A2 | d6 ::\
F2d2d2 | A2f2f2 | e2A2A2 | d2A2A2 |\
F2d2d2 | A2f2f2 |
e2A2A2 | d6 :: !f!\
AAgggg | ggAAAA | AAffff | ffAAAA |\
AAgggg | ggAAAA | eeAAAA |[1 dcedcB :|[2 d6 |]

%%sep 1 1 500
%%sep 1 1 500

